svg/l/HR.svg

<svg width="32" height="24" viewBox="0 0 32 24" fill="none" xmlns="http://www.w3.org/2000/svg">
<g clip-path="url(#clip0_270_67481)">
<rect width="32" height="24" fill="white"/>
<path fill-rule="evenodd" clip-rule="evenodd" d="M0 0V24H32V0H0Z" fill="#F7FCFF"/>
<mask id="mask0_270_67481" style="mask-type:luminance" maskUnits="userSpaceOnUse" x="0" y="0" width="32" height="24">
<path fill-rule="evenodd" clip-rule="evenodd" d="M0 0V24H32V0H0Z" fill="white"/>
</mask>
<g mask="url(#mask0_270_67481)">
<path fill-rule="evenodd" clip-rule="evenodd" d="M0 0V8H32V0H0Z" fill="#E31D1C"/>
<path fill-rule="evenodd" clip-rule="evenodd" d="M0 16V24H32V16H0Z" fill="#3D58DB"/>
<rect x="10.0765" y="6.39732" width="11.4" height="4" fill="#E31D1C"/>
<path d="M10.6522 8.95982H20.7807C20.7978 9.72878 20.803 11.0702 20.8029 12.3615C20.8028 13.1954 20.8006 13.9983 20.7984 14.5927C20.7973 14.8899 20.7962 15.135 20.7954 15.3057L20.7945 15.5032L20.7943 15.5318C20.7941 15.5328 20.794 15.5339 20.7938 15.535C20.7893 15.5616 20.7818 15.6035 20.7703 15.6584C20.7473 15.7685 20.7085 15.9301 20.6469 16.1259C20.5231 16.5193 20.3101 17.0408 19.9552 17.5589C19.2607 18.5728 17.9998 19.6153 15.6497 19.6153C13.3028 19.6153 12.1029 18.5742 11.4643 17.5701C11.1363 17.0544 10.949 16.5347 10.8442 16.1417C10.7921 15.9462 10.7611 15.7847 10.7433 15.6747C10.7345 15.6198 10.729 15.578 10.7258 15.5514C10.7251 15.545 10.7244 15.5395 10.7239 15.5349L10.7234 15.4901L10.721 15.2938L10.7125 14.5853C10.7055 13.9944 10.6961 13.1958 10.6867 12.3647C10.6724 11.0949 10.6582 9.75336 10.6522 8.95982ZM10.7222 15.5185C10.7222 15.5183 10.7222 15.5183 10.7222 15.5185L10.7222 15.5185Z" fill="#F7FCFF" stroke="#E31D1C" stroke-width="1.125"/>
<mask id="mask1_270_67481" style="mask-type:luminance" maskUnits="userSpaceOnUse" x="10" y="8" width="12" height="13">
<path d="M10.6522 8.95982H20.7807C20.7978 9.72878 20.803 11.0702 20.8029 12.3615C20.8028 13.1954 20.8006 13.9983 20.7984 14.5927C20.7973 14.8899 20.7962 15.135 20.7954 15.3057L20.7945 15.5032L20.7943 15.5318C20.7941 15.5328 20.794 15.5339 20.7938 15.535C20.7893 15.5616 20.7818 15.6035 20.7703 15.6584C20.7473 15.7685 20.7085 15.9301 20.6469 16.1259C20.5231 16.5193 20.3101 17.0408 19.9552 17.5589C19.2607 18.5728 17.9998 19.6153 15.6497 19.6153C13.3028 19.6153 12.1029 18.5742 11.4643 17.5701C11.1363 17.0544 10.949 16.5347 10.8442 16.1417C10.7921 15.9462 10.7611 15.7847 10.7433 15.6747C10.7345 15.6198 10.729 15.578 10.7258 15.5514C10.7251 15.545 10.7244 15.5395 10.7239 15.5349L10.7234 15.4901L10.721 15.2938L10.7125 14.5853C10.7055 13.9944 10.6961 13.1958 10.6867 12.3647C10.6724 11.0949 10.6582 9.75336 10.6522 8.95982ZM10.7222 15.5185C10.7222 15.5183 10.7222 15.5183 10.7222 15.5185L10.7222 15.5185Z" fill="white" stroke="white" stroke-width="1.125"/>
</mask>
<g mask="url(#mask1_270_67481)">
<path fill-rule="evenodd" clip-rule="evenodd" d="M10.4984 9.03989H12.6078V11.1818H10.4984V9.03989ZM14.7172 11.1818H12.6078V13.3237H10.4984V15.4656H12.6078V17.6075H10.4984V19.7494H12.6078V17.6075H14.7172V19.7494H16.8265V17.6075H18.9359V19.7494H21.0453V17.6075H18.9359V15.4656H21.0453V13.3237H18.9359V11.1818H21.0453V9.03989H18.9359V11.1818H16.8265V9.03989H14.7172V11.1818ZM14.7172 13.3237V11.1818H16.8265V13.3237H14.7172ZM14.7172 15.4656V13.3237H12.6078V15.4656H14.7172ZM16.8265 15.4656V17.6075H14.7172V15.4656H16.8265ZM16.8265 15.4656V13.3237H18.9359V15.4656H16.8265Z" fill="#F50100"/>
</g>
<path fill-rule="evenodd" clip-rule="evenodd" d="M10.453 8.16264C10.453 8.16264 11.1055 7.81414 11.6619 7.63455C12.2184 7.45495 12.6583 7.35682 12.6583 7.35682L11.8303 4.30473L10.172 3.68515L9.23279 5.23325L10.453 8.16264Z" fill="#56C6F5" stroke="white" stroke-width="0.5"/>
<path d="M10.181 6.49079L10.3716 6.39893C10.5684 6.81985 10.8278 6.94986 11.1833 6.81718C11.5465 6.68164 11.6945 6.42535 11.6423 6.01903L11.8514 5.9913C11.9163 6.49567 11.7129 6.84772 11.2561 7.01822C10.7916 7.19156 10.4221 7.00635 10.181 6.49079Z" fill="white"/>
<path fill-rule="evenodd" clip-rule="evenodd" d="M10.6323 5.54186L10.4501 5.65221C10.4098 5.67663 10.3597 5.64154 10.3688 5.59531L10.4102 5.38637L10.2236 5.28378C10.1823 5.26108 10.1876 5.20012 10.2322 5.18494L10.4339 5.11632L10.4294 4.90337C10.4284 4.85625 10.4838 4.83039 10.5193 4.86143L10.6795 5.00175L10.8617 4.89139C10.902 4.86697 10.9522 4.90207 10.943 4.9483L10.9016 5.15724L11.0883 5.25983C11.1296 5.28253 11.1242 5.34349 11.0796 5.35867L10.878 5.42729L10.8825 5.64024C10.8835 5.68736 10.828 5.71322 10.7925 5.68217L10.6323 5.54186Z" fill="#FECA00"/>
<path fill-rule="evenodd" clip-rule="evenodd" d="M14.5407 7.0758C14.5407 7.0758 15.0971 7.02614 15.6817 7.0375C16.2664 7.04886 16.7609 7.05301 16.7609 7.05301L17.0465 4.04353L15.7942 2.91215L14.4021 4.07013L14.5407 7.0758Z" fill="#56C6F5" stroke="white" stroke-width="0.5"/>
<path fill-rule="evenodd" clip-rule="evenodd" d="M15.7501 6.58482C16.2325 6.58482 16.2787 6.06386 16.2787 5.70898C16.1553 5.51215 16.1802 5.37129 15.7848 5.37129C15.3895 5.37129 15.3444 5.49075 15.229 5.70898C15.229 6.06386 15.2678 6.58482 15.7501 6.58482Z" fill="#FECA00"/>
<path fill-rule="evenodd" clip-rule="evenodd" d="M16.293 5.11287C16.7753 5.11287 16.8215 4.59191 16.8215 4.23703C16.6982 4.04019 16.723 3.89934 16.3277 3.89934C15.9323 3.89934 15.8872 4.0188 15.7719 4.23703C15.7719 4.59191 15.8106 5.11287 16.293 5.11287Z" fill="#FECA00"/>
<path fill-rule="evenodd" clip-rule="evenodd" d="M15.2383 5.11287C15.7206 5.11287 15.7668 4.59191 15.7668 4.23703C15.6435 4.04019 15.6683 3.89934 15.273 3.89934C14.8776 3.89934 14.8325 4.0188 14.7172 4.23703C14.7172 4.59191 14.7559 5.11287 15.2383 5.11287Z" fill="#FECA00"/>
<path d="M12.4446 7.60487L12.3726 7.36017L11.506 4.41643L11.465 4.27693L11.5659 4.17227L12.8044 2.88836L12.9537 2.73355L13.1291 2.85809L14.4918 3.8259L14.5862 3.89292L14.5961 4.00824L14.8484 6.93266L14.8709 7.1932L14.6096 7.20393L14.6096 7.20393L14.6096 7.20393L14.6093 7.20394L14.6082 7.20399L14.6037 7.20418L14.5857 7.20498L14.5179 7.20828C14.46 7.21125 14.3786 7.21576 14.2853 7.22193C14.0973 7.23437 13.8664 7.25321 13.6811 7.27894C13.5042 7.30353 13.2591 7.3642 13.0501 7.42174C12.9474 7.45002 12.8565 7.47668 12.7912 7.49626C12.7586 7.50604 12.7326 7.51403 12.7147 7.51955L12.6944 7.52586L12.6893 7.52746L12.6881 7.52784L12.6878 7.52792L12.6878 7.52793L12.4446 7.60487ZM12.4446 7.60487L12.6878 7.52793L12.4446 7.60487Z" fill="#2E42A5" stroke="white" stroke-width="0.5"/>
<mask id="mask2_270_67481" style="mask-type:luminance" maskUnits="userSpaceOnUse" x="11" y="2" width="5" height="6">
<path d="M12.4446 7.60487L12.3726 7.36017L11.506 4.41643L11.465 4.27693L11.5659 4.17227L12.8044 2.88836L12.9537 2.73355L13.1291 2.85809L14.4918 3.8259L14.5862 3.89292L14.5961 4.00824L14.8484 6.93266L14.8709 7.1932L14.6096 7.20393L14.6096 7.20393L14.6096 7.20393L14.6093 7.20394L14.6082 7.20399L14.6037 7.20418L14.5857 7.20498L14.5179 7.20828C14.46 7.21125 14.3786 7.21576 14.2853 7.22193C14.0973 7.23437 13.8664 7.25321 13.6811 7.27894C13.5042 7.30353 13.2591 7.3642 13.0501 7.42174C12.9474 7.45002 12.8565 7.47668 12.7912 7.49626C12.7586 7.50604 12.7326 7.51403 12.7147 7.51955L12.6944 7.52586L12.6893 7.52746L12.6881 7.52784L12.6878 7.52792L12.6878 7.52793L12.4446 7.60487ZM12.4446 7.60487L12.6878 7.52793L12.4446 7.60487Z" fill="white" stroke="white" stroke-width="0.5"/>
</mask>
<g mask="url(#mask2_270_67481)">
<path d="M12.4364 6.63784L12.1859 6.04776C12.7239 5.81227 13.6328 5.66777 14.5891 5.61127L14.6259 6.25275C13.7368 6.30528 12.8958 6.43676 12.4364 6.63784Z" fill="#C51918"/>
<path d="M12.0137 5.21048L11.7632 4.6204C12.3012 4.3849 13.4576 4.19426 14.414 4.13776L14.4507 4.77924C13.5617 4.83177 12.4731 5.00939 12.0137 5.21048Z" fill="#C51918"/>
</g>
<path d="M18.9687 7.60663L19.0367 7.35471L19.8324 4.40613L19.8682 4.27372L19.7757 4.17243L18.608 2.89336L18.4589 2.73005L18.2786 2.85809L16.9159 3.8259L16.8215 3.89292L16.8116 4.00824L16.5593 6.93266L16.5368 7.1932L16.7981 7.20393L16.7981 7.20393L16.7981 7.20393L16.7984 7.20394L16.7995 7.20399L16.804 7.20418L16.8219 7.20498L16.8898 7.20828C16.9477 7.21125 17.0291 7.21576 17.1224 7.22193C17.3104 7.23437 17.5413 7.25321 17.7266 7.27894C17.9035 7.30353 18.1486 7.3642 18.3575 7.42174C18.4603 7.45002 18.5512 7.47668 18.6165 7.49626C18.6491 7.50604 18.6751 7.51403 18.693 7.51955L18.7133 7.52586L18.7184 7.52746L18.7196 7.52784L18.7199 7.52792L18.7199 7.52793L18.9687 7.60663ZM18.9687 7.60663L18.7199 7.52793L18.9687 7.60663Z" fill="#2E42A5" stroke="white" stroke-width="0.5"/>
<mask id="mask3_270_67481" style="mask-type:luminance" maskUnits="userSpaceOnUse" x="16" y="2" width="5" height="6">
<path d="M18.9687 7.60663L19.0367 7.35471L19.8324 4.40613L19.8682 4.27372L19.7757 4.17243L18.608 2.89336L18.4589 2.73005L18.2786 2.85809L16.9159 3.8259L16.8215 3.89292L16.8116 4.00824L16.5593 6.93266L16.5368 7.1932L16.7981 7.20393L16.7981 7.20393L16.7981 7.20393L16.7984 7.20394L16.7995 7.20399L16.804 7.20418L16.8219 7.20498L16.8898 7.20828C16.9477 7.21125 17.0291 7.21576 17.1224 7.22193C17.3104 7.23437 17.5413 7.25321 17.7266 7.27894C17.9035 7.30353 18.1486 7.3642 18.3575 7.42174C18.4603 7.45002 18.5512 7.47668 18.6165 7.49626C18.6491 7.50604 18.6751 7.51403 18.693 7.51955L18.7133 7.52586L18.7184 7.52746L18.7196 7.52784L18.7199 7.52792L18.7199 7.52793L18.9687 7.60663ZM18.9687 7.60663L18.7199 7.52793L18.9687 7.60663Z" fill="white" stroke="white" stroke-width="0.5"/>
</mask>
<g mask="url(#mask3_270_67481)">
<path fill-rule="evenodd" clip-rule="evenodd" d="M18.3978 6.46649C18.3978 6.46649 18.6918 6.30287 18.7342 6.02699C18.7766 5.7511 19.2313 5.41131 19.0039 5.45175C18.7766 5.49219 18.9066 5.52378 18.5774 5.45175C18.2481 5.37972 17.822 5.33207 17.822 5.12969C17.822 4.9273 18.0338 4.76667 17.8607 4.76667C17.6875 4.76667 17.3182 4.57511 17.3923 4.72152C17.4665 4.86794 17.2217 4.70239 17.3441 5.00635C17.4665 5.31031 17.3182 5.61653 17.3923 5.69711C17.4665 5.77769 17.3441 6.17288 17.3441 6.17288C17.3441 6.17288 17.3891 6.31966 17.4677 6.09981C17.5464 5.87996 17.7185 5.72586 17.6325 5.91284C17.5464 6.09981 17.4366 6.54454 17.5345 6.46649C17.6325 6.38845 17.7298 6.17263 17.7298 6.09981C17.7298 6.02699 17.9769 5.74112 17.9769 5.957C17.9769 6.17288 17.7444 6.34288 17.8607 6.34288C17.9769 6.34288 18.0421 6.38876 18.1152 6.17288C18.1882 5.957 18.3657 5.81419 18.4385 5.957C18.5113 6.09981 18.4952 6.09218 18.3978 6.27934C18.3005 6.46649 18.3978 6.46649 18.3978 6.46649Z" fill="#FECA00"/>
<path fill-rule="evenodd" clip-rule="evenodd" d="M17.7072 4.86652L17.5978 4.68341C17.7942 4.56239 17.9745 4.53015 18.1328 4.59762C18.2049 4.6283 18.2591 4.66324 18.4005 4.76269L18.419 4.77567C18.5662 4.87892 18.6441 4.92098 18.6921 4.92098V5.13517C18.5823 5.13517 18.4873 5.08391 18.2991 4.95191L18.2804 4.93876C18.1531 4.84925 18.104 4.8176 18.0512 4.79513C17.9636 4.7578 17.8509 4.77796 17.7072 4.86652ZM17.3609 6.26346C17.423 6.26346 17.4734 6.21371 17.4734 6.15235C17.4734 6.09098 17.423 6.04123 17.3609 6.04123C17.2988 6.04123 17.2484 6.09098 17.2484 6.15235C17.2484 6.21371 17.2988 6.26346 17.3609 6.26346ZM17.6844 6.36654C17.6844 6.4279 17.634 6.47765 17.5719 6.47765C17.5097 6.47765 17.4594 6.4279 17.4594 6.36654C17.4594 6.30517 17.5097 6.25542 17.5719 6.25542C17.634 6.25542 17.6844 6.30517 17.6844 6.36654ZM17.9508 6.46939C18.0129 6.46939 18.0633 6.41964 18.0633 6.35827C18.0633 6.29691 18.0129 6.24716 17.9508 6.24716C17.8886 6.24716 17.8383 6.29691 17.8383 6.35827C17.8383 6.41964 17.8886 6.46939 17.9508 6.46939ZM18.4157 6.53609C18.4157 6.59746 18.3654 6.6472 18.3032 6.6472C18.2411 6.6472 18.1907 6.59746 18.1907 6.53609C18.1907 6.47473 18.2411 6.42498 18.3032 6.42498C18.3654 6.42498 18.4157 6.47473 18.4157 6.53609Z" fill="#C51918"/>
</g>
<path d="M21.3524 8.18596L21.2444 8.4347L21.0053 8.30696L21.0053 8.30696L21.0052 8.30695L21.005 8.30682L21.0039 8.3062L20.9988 8.30352L20.9782 8.29273C20.9601 8.28324 20.9332 8.26936 20.8992 8.25208C20.8311 8.21749 20.7344 8.16944 20.6207 8.11591C20.3917 8.00803 20.1006 7.88122 19.8373 7.79626C19.5645 7.70822 19.3201 7.64008 19.144 7.59398C19.056 7.57096 18.9852 7.55348 18.9368 7.54183L18.8814 7.52875L18.8675 7.52555L18.8642 7.5248L18.8635 7.52464L18.8634 7.52462L18.8633 7.52461L18.8633 7.52461L18.8633 7.52461L18.6049 7.46696L18.6773 7.21225L19.5233 4.23637L19.5579 4.11478L19.6763 4.07054L21.3346 3.45096L21.5285 3.37852L21.6359 3.55548L22.5751 5.10358L22.6421 5.21415L22.5907 5.33278L21.3524 8.18596Z" fill="#56C6F5" stroke="white" stroke-width="0.5"/>
<mask id="mask4_270_67481" style="mask-type:luminance" maskUnits="userSpaceOnUse" x="18" y="3" width="5" height="6">
<path d="M21.3524 8.18596L21.2444 8.4347L21.0053 8.30696L21.0053 8.30696L21.0052 8.30695L21.005 8.30682L21.0039 8.3062L20.9988 8.30352L20.9782 8.29273C20.9601 8.28324 20.9332 8.26936 20.8992 8.25208C20.8311 8.21749 20.7344 8.16944 20.6207 8.11591C20.3917 8.00803 20.1006 7.88122 19.8373 7.79626C19.5645 7.70822 19.3201 7.64008 19.144 7.59398C19.056 7.57096 18.9852 7.55348 18.9368 7.54183L18.8814 7.52875L18.8675 7.52555L18.8642 7.5248L18.8635 7.52464L18.8634 7.52462L18.8633 7.52461L18.8633 7.52461L18.8633 7.52461L18.6049 7.46696L18.6773 7.21225L19.5233 4.23637L19.5579 4.11478L19.6763 4.07054L21.3346 3.45096L21.5285 3.37852L21.6359 3.55548L22.5751 5.10358L22.6421 5.21415L22.5907 5.33278L21.3524 8.18596Z" fill="white" stroke="white" stroke-width="0.5"/>
</mask>
<g mask="url(#mask4_270_67481)">
<path fill-rule="evenodd" clip-rule="evenodd" d="M21.1274 5.08913L20.9854 5.24793C20.954 5.28307 20.8958 5.26416 20.8911 5.21727L20.8696 5.00536L20.6611 4.96183C20.615 4.9522 20.6022 4.89234 20.6405 4.86478L20.8132 4.7402L20.7467 4.53787C20.732 4.4931 20.7774 4.45216 20.8204 4.47148L21.0147 4.55881L21.1566 4.40001C21.188 4.36488 21.2462 4.38378 21.251 4.43067L21.2725 4.64258L21.481 4.68612C21.5271 4.69575 21.5399 4.7556 21.5016 4.78317L21.3289 4.90774L21.3954 5.11008C21.4101 5.15485 21.3647 5.19579 21.3217 5.17647L21.1274 5.08913Z" fill="#FECA00"/>
<path d="M18.9951 6.48763L19.2075 5.65846C20.1483 5.90696 21.129 6.22545 21.8484 6.53342L21.5207 7.3229C20.841 7.03196 19.8985 6.72625 18.9951 6.48763Z" fill="#E31D1C"/>
<path d="M19.2831 5.72198L19.3332 5.51392C20.2351 5.73773 21.1937 6.09486 21.8903 6.42748L21.8005 6.62131C21.1173 6.29508 20.1719 5.94256 19.2831 5.72198Z" fill="white"/>
<path d="M19.0157 6.57654L19.0658 6.36847C19.9677 6.59229 20.8013 6.89598 21.4979 7.22861L21.4082 7.42243C20.725 7.0962 19.9046 6.79711 19.0157 6.57654Z" fill="white"/>
<path d="M19.4229 6.17499L19.616 6.08778C19.6973 6.2781 19.7977 6.32002 19.9656 6.23845C20.3621 6.04579 21.3457 6.31503 21.3457 6.67806C21.3457 6.81969 21.2636 6.90556 21.1383 6.90058C21.0676 6.89777 20.9921 6.86982 20.8813 6.81507C20.8679 6.80842 20.859 6.80398 20.8372 6.7929C20.7148 6.73043 20.7055 6.72588 20.6729 6.71413L20.7427 6.50948C20.7878 6.52576 20.7949 6.52924 20.931 6.59862C20.952 6.60929 20.9601 6.61341 20.9727 6.61962C21.0576 6.66159 21.1144 6.6826 21.1464 6.68388C21.1494 6.68399 21.1348 6.6993 21.1348 6.67806C21.1348 6.51833 20.3342 6.2992 20.0557 6.43453C19.7779 6.56948 19.5509 6.47468 19.4229 6.17499Z" fill="#272727"/>
</g>
</g>
</g>
<defs>
<clipPath id="clip0_270_67481">
<rect width="32" height="24" fill="white"/>
</clipPath>
</defs>
</svg>

<svg width="32" height="24" fill="none" xmlns="http://www.w3.org/2000/svg">
  <g mask="url(#HR_-_Croatia_(Hrvatska)__a)">
    <path fill-rule="evenodd" clip-rule="evenodd" d="M0 0v24h32V0H0z" fill="#F7FCFF"/>
    <g mask="url(#HR_-_Croatia_(Hrvatska)__b)">
      <path fill-rule="evenodd" clip-rule="evenodd" d="M0 0v8h32V0H0z" fill="#E31D1C"/>
      <path fill-rule="evenodd" clip-rule="evenodd" d="M0 16v8h32v-8H0z" fill="#3D58DB"/>
      <path fill="#E31D1C" d="M10.076 6.397h11.4v4h-11.4z"/>
      <path d="M10.652 8.96h10.129c.017.769.022 2.11.022 3.401a638.27 638.27 0 01-.008 2.945v.226l-.001.003a4.943 4.943 0 01-.147.59 5.458 5.458 0 01-.692 1.434c-.694 1.014-1.955 2.056-4.305 2.056-2.347 0-3.547-1.04-4.186-2.045a5.166 5.166 0 01-.738-2.019l-.002-.016v-.045l-.003-.196-.008-.709-.026-2.22c-.015-1.27-.029-2.612-.035-3.405zm.07 6.558s0 0 0 0h0z" fill="#F7FCFF" stroke="#E31D1C" stroke-width="1.125"/>
      <g mask="url(#HR_-_Croatia_(Hrvatska)__c)">
        <path fill-rule="evenodd" clip-rule="evenodd" d="M10.498 9.04h2.11v2.142h-2.11V9.04zm4.22 2.142h-2.11v2.142h-2.11v2.142h2.11v2.142h-2.11v2.141h2.11v-2.141h2.11v2.141h2.108v-2.141h2.11v2.141h2.11v-2.141h-2.11v-2.142h2.11v-2.142h-2.11v-2.142h2.11V9.04h-2.11v2.142h-2.11V9.04h-2.109v2.142zm0 2.142v-2.142h2.108v2.142h-2.109zm0 2.142v-2.142h-2.11v2.142h2.11zm2.108 0v2.142h-2.109v-2.142h2.11zm0 0v-2.142h2.11v2.142h-2.11z" fill="#F50100"/>
      </g>
      <path fill-rule="evenodd" clip-rule="evenodd" d="M10.453 8.163s.652-.349 1.209-.528c.556-.18.996-.278.996-.278l-.828-3.052-1.658-.62-.94 1.548 1.221 2.93z" fill="#56C6F5" stroke="#fff" stroke-width=".5"/>
      <path d="M10.181 6.49l.19-.091c.197.42.457.55.812.418.364-.135.511-.392.46-.798l.208-.028c.065.505-.138.857-.595 1.027-.464.174-.834-.012-1.075-.527z" fill="#fff"/>
      <path fill-rule="evenodd" clip-rule="evenodd" d="M10.632 5.542l-.182.11a.054.054 0 01-.081-.057l.041-.209-.186-.102a.054.054 0 01.008-.1l.202-.068-.005-.213a.054.054 0 01.09-.042l.16.14.183-.11c.04-.024.09.011.081.057l-.041.21.186.102a.054.054 0 01-.008.099l-.202.068.005.213a.054.054 0 01-.09.042l-.16-.14z" fill="#FECA00"/>
      <path fill-rule="evenodd" clip-rule="evenodd" d="M14.54 7.076s.557-.05 1.142-.038c.584.01 1.079.015 1.079.015l.286-3.01-1.253-1.13-1.392 1.157.139 3.006z" fill="#56C6F5" stroke="#fff" stroke-width=".5"/>
      <path fill-rule="evenodd" clip-rule="evenodd" d="M15.75 6.585c.483 0 .529-.521.529-.876-.124-.197-.099-.338-.494-.338-.396 0-.44.12-.556.338 0 .355.039.876.521.876zm.543-1.472c.482 0 .529-.521.529-.876-.124-.197-.099-.338-.494-.338-.396 0-.44.12-.556.338 0 .355.039.876.521.876zm-1.055 0c.483 0 .529-.521.529-.876-.123-.197-.099-.338-.494-.338s-.44.12-.556.338c0 .355.039.876.521.876z" fill="#FECA00"/>
      <path d="M12.445 7.605l-.072-.245-.867-2.944-.041-.14.1-.104 1.24-1.284.149-.154.175.124 1.363.968.094.067.01.115.252 2.925.023.26-.261.01h0l-.002.001h-.004l-.018.001-.068.003-.233.014a9.107 9.107 0 00-.604.057 5.563 5.563 0 00-.63.143 12.054 12.054 0 00-.336.098l-.02.006-.006.001h0-.001 0l-.243.078zm0 0l.243-.077-.243.077z" fill="#2E42A5" stroke="#fff" stroke-width=".5"/>
      <g mask="url(#HR_-_Croatia_(Hrvatska)__d)" fill="#C51918">
        <path d="M12.436 6.638l-.25-.59c.538-.236 1.447-.38 2.403-.437l.037.642c-.89.052-1.73.184-2.19.385zm-.422-1.428l-.25-.59c.537-.235 1.694-.426 2.65-.482l.037.641c-.89.053-1.978.23-2.437.431z"/>
      </g>
      <path d="M18.969 7.607l.068-.252.795-2.949.036-.132-.092-.102-1.168-1.279-.15-.163-.18.128-1.362.968-.095.067-.01.115-.252 2.925-.022.26.261.01h0l.002.001h.004l.018.001.068.003.232.014c.188.012.42.031.605.057.177.025.422.085.63.143a11.92 11.92 0 01.336.098l.02.006.005.001h.002l.249.08zm0 0l-.25-.08.25.08z" fill="#2E42A5" stroke="#fff" stroke-width=".5"/>
      <g mask="url(#HR_-_Croatia_(Hrvatska)__e)" fill-rule="evenodd" clip-rule="evenodd">
        <path d="M18.398 6.466s.294-.163.336-.439c.043-.276.497-.616.27-.575-.227.04-.097.072-.427 0-.329-.072-.755-.12-.755-.322 0-.203.212-.363.039-.363-.174 0-.543-.192-.469-.045.075.146-.17-.02-.048.284.122.304-.026.61.048.691.075.08-.048.476-.048.476s.045.147.124-.073c.078-.22.25-.374.165-.187-.087.187-.196.632-.098.553a.695.695 0 00.195-.366c0-.073.247-.359.247-.143s-.233.386-.116.386c.116 0 .181.046.254-.17.073-.216.25-.359.324-.216.072.143.056.135-.041.322-.098.187 0 .187 0 .187z" fill="#FECA00"/>
        <path d="M17.707 4.867l-.11-.184c.197-.12.377-.153.536-.085.072.03.126.065.268.165l.018.013c.147.103.225.145.273.145v.214c-.11 0-.205-.051-.393-.183l-.019-.013a1.312 1.312 0 00-.229-.144c-.087-.037-.2-.017-.344.072zm-.346 1.396c.062 0 .112-.05.112-.11a.112.112 0 00-.112-.112.112.112 0 00-.113.111c0 .062.05.111.113.111zm.323.104c0 .06-.05.11-.112.11a.112.112 0 01-.113-.11c0-.062.05-.112.113-.112.062 0 .112.05.112.112zm.267.102c.062 0 .112-.05.112-.11a.112.112 0 00-.112-.112.112.112 0 00-.113.111c0 .062.05.111.113.111zm.465.067c0 .061-.05.111-.113.111a.112.112 0 01-.112-.11.112.112 0 01.225-.001z" fill="#C51918"/>
      </g>
      <path d="M21.352 8.186l-.108.249-.239-.128h0-.001l-.005-.003-.02-.011a7.39 7.39 0 00-.358-.177 6.985 6.985 0 00-.784-.32 13.041 13.041 0 00-.9-.254l-.056-.013-.014-.003-.003-.001h0l-.26-.058.073-.255.846-2.976.035-.121.118-.044 1.659-.62.194-.072.107.176.94 1.549.066.11-.051.119-1.239 2.853z" fill="#56C6F5" stroke="#fff" stroke-width=".5"/>
      <g mask="url(#HR_-_Croatia_(Hrvatska)__f)">
        <path fill-rule="evenodd" clip-rule="evenodd" d="M21.127 5.09l-.142.158a.054.054 0 01-.094-.03l-.021-.213-.209-.043a.054.054 0 01-.02-.097l.172-.125-.066-.202a.054.054 0 01.073-.067l.195.088.142-.159a.054.054 0 01.094.03l.021.213.209.043c.046.01.059.07.02.097l-.172.125.066.202a.054.054 0 01-.073.066l-.195-.087z" fill="#FECA00"/>
        <path d="M18.995 6.488l.212-.83c.941.249 1.922.567 2.641.875l-.327.79c-.68-.291-1.623-.597-2.526-.835z" fill="#E31D1C"/>
        <path d="M19.283 5.722l.05-.208c.902.224 1.86.58 2.557.913l-.09.194a14.127 14.127 0 00-2.517-.899zm-.267.855l.05-.209a13.04 13.04 0 012.432.86l-.09.194a12.767 12.767 0 00-2.392-.845z" fill="#fff"/>
        <path d="M19.423 6.175l.193-.087c.081.19.182.232.35.15.396-.192 1.38.077 1.38.44 0 .142-.082.228-.208.223a.66.66 0 01-.257-.086 4.297 4.297 0 01-.044-.022 1.315 1.315 0 00-.164-.079l.07-.205c.045.017.052.02.188.09l.042.02a.543.543 0 00.173.065c.003 0-.011.015-.011-.006 0-.16-.8-.379-1.08-.243-.277.134-.504.04-.632-.26z" fill="#272727"/>
      </g>
    </g>
  </g>
</svg>
